X:1
T:The Female Highwayman
M:3/4
L:1/8
K:F
 CFC| F3 G/2G/2 C/2C/2 =B,| C3 CF C| F3 GA c| G3 G/2A/2 BG| c2 GF EC|\
 F3 CE F| G2 FD C=B,| C3 CE F| G2 FD C=B,| C3||
